!!!OTL: SCHOENSTER SCHATZ MEIN AUGENTROST
!!!ARE: Europa, Mitteleuropa, Deutschland
!!!SCT: E0560
!!!YEM: Copyright 1995, estate of Helmut Schaffrath.
**kern
*ICvox
*Ivox
*M3/4
*k[f#]
*G:
{8d
=1
8d
16e
16f#
4g
4b
=2
8a
8a
8g}
{8a
8b
8cc
=3
8.dd
16ee
8dd
8b
8cc
8dd
=4
4b
4.r}
{8d
=5
8g
8b
4dd
8ee
8dd
=6
8cc
8b
4.cc}
{8dd
=7
8b
8a
8b
8dd
8cc
8b
=8
8a
8g
8a}
{8d
8g
8b
=9
8dd
8ee
4dd
8cc
8dd
=10
4b
4.r}
==
!!!AGN: Liebes - Lied
!!!ONB: ESAC (Essen Associative Code) Database: ERK1
!!!AMT: simple triple
!!!AIN: vox
!!!EED: Helmut Schaffrath
!!!EEV: 1.0
*-
